images/people/people-08.svg

<?xml version="1.0" standalone="no"?><!DOCTYPE svg PUBLIC "-//W3C//DTD SVG 1.1//EN" "http://www.w3.org/Graphics/SVG/1.1/DTD/svg11.dtd"><svg width="120px" height="192px" version="1.1" xmlns="http://www.w3.org/2000/svg" xmlns:xlink="http://www.w3.org/1999/xlink" xml:space="preserve" style="fill-rule:evenodd;clip-rule:evenodd;stroke-linejoin:round;stroke-miterlimit:1.41421;"><g><g id="people-08" transform="matrix(1,0,0,1,-1731.64,-48)"><g transform="matrix(1,0,0,1,0,-12)"><path d="M1777.14,169.33l-1.036,5.519l1.428,7.046l2.572,-1.444l-0.736,-6.06l0.17,1.837l2.392,-0.594l-2.019,-4.489l-2.771,-1.815Z" style="fill:#72594b;fill-rule:nonzero;"/></g><g transform="matrix(1,0,0,1,0,-12)"><path d="M1784.88,139.75l4.799,-1.888l10.424,-0.406l-1.975,-8.332l-12.688,-0.233l-0.56,10.859Z" style="fill:#2a2b2a;fill-rule:nonzero;"/></g><g transform="matrix(1,0,0,1,0,-12)"><path d="M1798.59,233.034l0.853,6.195l-6.039,-0.155l-0.465,-6.658l5.651,0.618Z" style="fill:#2a2b2a;fill-rule:nonzero;"/></g><g transform="matrix(1,0,0,1,0,-12)"><path d="M1787.55,249.525l0.698,1.975l4.76,0l1.218,-9.001l-5.436,-1.141l-1.24,8.167Z" style="fill:#2a2b2a;fill-rule:nonzero;"/></g><g transform="matrix(1,0,0,1,0,-12)"><path d="M1785.81,137.805l2.554,-1.703l1.857,-5.265l4.292,1.223l1.361,3.346l2.942,1.47l-1.858,6.116l-8.748,0.233l-2.4,-5.42Z" style="fill:#553f37;fill-rule:nonzero;"/></g><g transform="matrix(1,0,0,1,0,-12)"><path d="M1790.13,134.589l3.864,0l4.162,-5.351l-0.744,-11.446l-7.423,-1.24l-4.614,1.835l0.149,10.851l4.606,5.351Z" style="fill:#72594b;fill-rule:nonzero;"/></g><g transform="matrix(1,0,0,1,0,-12)"><path d="M1784.23,145.798l-4.264,25.759l-3.05,-1.145l3.803,-29.065l3.511,4.451Z" style="fill:#72594b;fill-rule:nonzero;"/></g><g transform="matrix(1,0,0,1,0,-12)"><path d="M1791.25,113.167l8.583,2.708l4.707,23.208l-4.851,5.167l0.059,-5.574l-0.31,-1.646l-1.491,-7.529l-1.864,-9.501l-5.103,-2.083l0.27,-4.75Z" style="fill:#2a2b2a;fill-rule:nonzero;"/></g><g transform="matrix(1,0,0,1,0,-12)"><path d="M1791.07,117.917l-5.022,1.887l-0.588,22.196l-4.248,-0.749l0.832,-23.918l9.334,-4.25l-0.308,4.834Z" style="fill:#2a2b2a;fill-rule:nonzero;"/></g><g transform="matrix(1,0,0,1,0,-12)"><path d="M1793.09,195.562l0.929,46.917l-5.188,-1.083l-4.568,-45.989" style="fill:#72594b;fill-rule:nonzero;"/></g><g transform="matrix(1,0,0,1,0,-12)"><path d="M1792.94,178.994l0.156,19.819l0.735,33.835l4.76,0.386l2.324,-34.433l-7.975,-19.607Z" style="fill:#553f37;fill-rule:nonzero;"/></g><g transform="matrix(1,0,0,1,0,-12)"><path d="M1804.55,139.198l-5.701,-2.352l-2.274,5.603l-8.052,0.233l-2.709,-4.994l-5.189,3.563l3.485,4.605l0.433,14.394l-7.208,40.15l29.847,0.233l-6.889,-39.883l1.314,-17.371l2.943,-4.181Z" style="fill:#e4e2dc;fill-rule:nonzero;"/></g><g transform="matrix(1,0,0,1,0,-12)"><path d="M1801.65,143.344l1.213,27.267l3.289,-0.238l-1.564,-31.123l-2.938,4.094Z" style="fill:#72594b;fill-rule:nonzero;"/></g><g transform="matrix(1,0,0,1,0,-12)"><path d="M1806.16,170.277l0.295,4.335l-2.928,6.144l-2.4,-1.423l2.129,-5.506l-0.358,1.809l-2.021,-1.636l2.037,-3.326l3.246,-0.397Z" style="fill:#72594b;fill-rule:nonzero;"/></g></g></g></svg>

<?xml version="1.0" encoding="UTF-8" standalone="no"?>
<!DOCTYPE svg PUBLIC "-//W3C//DTD SVG 1.1//EN" "http://www.w3.org/Graphics/SVG/1.1/DTD/svg11.dtd">
<svg width="100%" height="100%" viewBox="0 0 140 220" version="1.1" xmlns="http://www.w3.org/2000/svg" xmlns:xlink="http://www.w3.org/1999/xlink" xml:space="preserve" xmlns:serif="http://www.serif.com/" style="fill-rule:evenodd;clip-rule:evenodd;stroke-linejoin:round;stroke-miterlimit:2;">
    <g id="people-08" transform="matrix(1.27,0,0,1.27,-2205.39,-84.8)">
        <g transform="matrix(1,0,0,1,0,-12)">
            <path d="M1777.14,169.33L1776.11,174.849L1777.54,181.895L1780.11,180.451L1779.37,174.391L1779.54,176.228L1781.93,175.634L1779.91,171.145L1777.14,169.33Z" style="fill:rgb(114,89,75);fill-rule:nonzero;"/>
        </g>
        <g transform="matrix(1,0,0,1,0,-12)">
            <path d="M1784.88,139.75L1789.67,137.862L1800.1,137.456L1798.12,129.124L1785.43,128.891L1784.88,139.75Z" style="fill:rgb(42,43,42);fill-rule:nonzero;"/>
        </g>
        <g transform="matrix(1,0,0,1,0,-12)">
            <path d="M1798.59,233.034L1799.44,239.229L1793.4,239.074L1792.94,232.416L1798.59,233.034Z" style="fill:rgb(42,43,42);fill-rule:nonzero;"/>
        </g>
        <g transform="matrix(1,0,0,1,0,-12)">
            <path d="M1787.56,249.525L1788.25,251.5L1793.01,251.5L1794.23,242.499L1788.8,241.358L1787.56,249.525Z" style="fill:rgb(42,43,42);fill-rule:nonzero;"/>
        </g>
        <g transform="matrix(1,0,0,1,0,-12)">
            <path d="M1785.81,137.805L1788.37,136.102L1790.23,130.837L1794.52,132.06L1795.88,135.406L1798.82,136.876L1796.96,142.992L1788.21,143.225L1785.81,137.805Z" style="fill:rgb(85,63,55);fill-rule:nonzero;"/>
        </g>
        <g transform="matrix(1,0,0,1,0,-12)">
            <path d="M1790.13,134.589L1794,134.589L1798.16,129.238L1797.42,117.792L1789.99,116.552L1785.38,118.387L1785.53,129.238L1790.13,134.589Z" style="fill:rgb(114,89,75);fill-rule:nonzero;"/>
        </g>
        <g transform="matrix(1,0,0,1,0,-12)">
            <path d="M1784.23,145.798L1779.96,171.557L1776.91,170.412L1780.72,141.347L1784.23,145.798Z" style="fill:rgb(114,89,75);fill-rule:nonzero;"/>
        </g>
        <g transform="matrix(1,0,0,1,0,-12)">
            <path d="M1791.25,113.167L1799.83,115.875L1804.54,139.083L1799.69,144.25L1799.75,138.676L1799.44,137.03L1797.95,129.501L1796.08,120L1790.98,117.917L1791.25,113.167Z" style="fill:rgb(42,43,42);fill-rule:nonzero;"/>
        </g>
        <g transform="matrix(1,0,0,1,0,-12)">
            <path d="M1791.07,117.917L1786.05,119.804L1785.46,142L1781.21,141.251L1782.04,117.333L1791.38,113.083L1791.07,117.917Z" style="fill:rgb(42,43,42);fill-rule:nonzero;"/>
        </g>
        <g transform="matrix(1,0,0,1,0,-12)">
            <path d="M1793.09,195.563L1794.02,242.48L1788.83,241.397L1784.27,195.408" style="fill:rgb(114,89,75);fill-rule:nonzero;"/>
        </g>
        <g transform="matrix(1,0,0,1,0,-12)">
            <path d="M1792.94,178.994L1793.09,198.813L1793.83,232.648L1798.59,233.034L1800.91,198.601L1792.94,178.994Z" style="fill:rgb(85,63,55);fill-rule:nonzero;"/>
        </g>
        <g transform="matrix(1,0,0,1,0,-12)">
            <path d="M1804.55,139.198L1798.85,136.846L1796.58,142.449L1788.52,142.682L1785.81,137.688L1780.62,141.251L1784.11,145.856L1784.54,160.25L1777.34,200.4L1807.18,200.633L1800.29,160.75L1801.61,143.379L1804.55,139.198Z" style="fill:rgb(228,226,220);fill-rule:nonzero;"/>
        </g>
        <g transform="matrix(1,0,0,1,0,-12)">
            <path d="M1801.65,143.344L1802.86,170.611L1806.15,170.373L1804.59,139.25L1801.65,143.344Z" style="fill:rgb(114,89,75);fill-rule:nonzero;"/>
        </g>
        <g transform="matrix(1,0,0,1,0,-12)">
            <path d="M1806.16,170.277L1806.45,174.612L1803.53,180.756L1801.12,179.333L1803.25,173.827L1802.9,175.636L1800.88,174L1802.91,170.674L1806.16,170.277Z" style="fill:rgb(114,89,75);fill-rule:nonzero;"/>
        </g>
    </g>
</svg>
